polaris-icons/icons/DatabaseConnect.svg

<svg viewBox="0 0 20 20" xmlns="http://www.w3.org/2000/svg"><path fill-rule="evenodd" clip-rule="evenodd" d="M5.65559 8.8727C5.42605 8.78089 5.20598 8.67903 5 8.56662V9.98C5 10.0249 5.01966 10.1435 5.21719 10.3303C5.41632 10.5187 5.7447 10.7228 6.21268 10.91C7.14447 11.2827 8.48317 11.53 10 11.53C10.5711 11.53 11.1198 11.4949 11.6328 11.4304C11.747 11.416 11.8592 11.4002 11.9696 11.3831C11.9929 11.3794 12.0039 11.3768 12.0292 11.3702L12.0392 11.3675C12.0746 11.3582 12.1334 11.3427 12.2123 11.328C12.6195 11.2519 13.0112 11.5204 13.0873 11.9276C13.1633 12.3347 12.8948 12.7264 12.4877 12.8025C12.4637 12.8069 12.452 12.81 12.418 12.8189L12.4086 12.8214C12.3588 12.8344 12.2937 12.8507 12.2003 12.8652C12.0753 12.8847 11.9484 12.9025 11.82 12.9187C11.2431 12.9912 10.6319 13.03 10 13.03C8.34119 13.03 6.80489 12.7624 5.65559 12.3027C5.42605 12.2109 5.20598 12.109 5 11.9966V13.45C5 13.5086 5.04293 13.7079 5.45729 13.991C5.85332 14.2616 6.46829 14.5179 7.26614 14.7051C7.6694 14.7997 7.9196 15.2033 7.82498 15.6066C7.73035 16.0099 7.32674 16.2601 6.92348 16.1654C6.01931 15.9533 5.21188 15.6401 4.61101 15.2295C4.02847 14.8314 3.5 14.2378 3.5 13.45V6.55C3.5 5.95976 3.80214 5.47334 4.18653 5.10982C4.56934 4.74779 5.08303 4.45632 5.65559 4.2273C6.80489 3.76758 8.34119 3.5 10 3.5C11.6588 3.5 13.1951 3.76758 14.3444 4.2273C14.917 4.45632 15.4307 4.74779 15.8135 5.10982C16.1979 5.47334 16.5 5.95976 16.5 6.55C16.5 7.14024 16.1979 7.62666 15.8135 7.99018C15.4307 8.35221 14.917 8.64368 14.3444 8.8727C13.1951 9.33242 11.6588 9.6 10 9.6C8.34119 9.6 6.80489 9.33242 5.65559 8.8727ZM5 6.55C5 6.50511 5.01966 6.38647 5.21719 6.19965C5.41632 6.01134 5.7447 5.8072 6.21268 5.62001C7.14447 5.24729 8.48317 5 10 5C11.5168 5 12.8555 5.24729 13.7873 5.62001C14.2553 5.8072 14.5837 6.01134 14.7828 6.19965C14.9803 6.38647 15 6.50511 15 6.55C15 6.59489 14.9803 6.71353 14.7828 6.90035C14.5837 7.08866 14.2553 7.2928 13.7873 7.47999C12.8555 7.85271 11.5168 8.1 10 8.1C8.48317 8.1 7.14447 7.85271 6.21268 7.47999C5.7447 7.2928 5.41632 7.08866 5.21719 6.90035C5.01966 6.71353 5 6.59489 5 6.55Z"/><path fill-rule="evenodd" clip-rule="evenodd" d="M15.0828 9.5301C14.2042 10.4088 14.2042 11.8334 15.0828 12.7121C15.3486 12.9778 15.6643 13.1632 15.9997 13.2682V13.5002C15.9997 14.7429 14.9923 15.7502 13.7497 15.7502H13.5184C13.4134 15.4146 13.228 15.0987 12.9621 14.8328C12.0834 13.9542 10.6588 13.9542 9.7801 14.8328C8.90142 15.7115 8.90142 17.1361 9.7801 18.0148C10.6588 18.8935 12.0834 18.8935 12.9621 18.0148C13.1872 17.7897 13.3547 17.5287 13.4645 17.2502H13.7497C15.8207 17.2502 17.4997 15.5713 17.4997 13.5002V13.2147C17.7783 13.1049 18.0395 12.9374 18.2648 12.7121C19.1435 11.8334 19.1435 10.4088 18.2648 9.5301C17.3861 8.65142 15.9615 8.65142 15.0828 9.5301ZM16.1435 11.6514C15.8506 11.3585 15.8506 10.8837 16.1435 10.5908C16.4364 10.2979 16.9113 10.2979 17.2042 10.5908C17.4971 10.8837 17.4971 11.3585 17.2042 11.6514C16.9113 11.9443 16.4364 11.9443 16.1435 11.6514ZM10.8408 16.9542C10.5479 16.6613 10.5479 16.1864 10.8408 15.8935C11.1337 15.6006 11.6085 15.6006 11.9014 15.8935C12.1943 16.1864 12.1943 16.6613 11.9014 16.9542C11.6085 17.2471 11.1337 17.2471 10.8408 16.9542Z"/></svg>

<svg xmlns="http://www.w3.org/2000/svg" viewBox="0 0 20 20"><path fill-rule="evenodd" d="M5.656 8.873c-.23-.092-.45-.194-.656-.306v1.413c0 .045.02.163.217.35.2.189.528.393.996.58.931.373 2.27.62 3.787.62.571 0 1.12-.035 1.633-.1.114-.014.226-.03.337-.047.023-.004.034-.006.06-.013l.01-.002c.035-.01.093-.025.172-.04.408-.076.8.192.875.6.076.407-.192.798-.6.874l-.069.017-.01.002c-.05.013-.114.03-.208.044-.125.02-.252.037-.38.054-.577.072-1.188.111-1.82.111-1.659 0-3.195-.268-4.344-.727-.23-.092-.45-.194-.656-.306v1.453c0 .059.043.258.457.541.396.27 1.011.527 1.81.714.402.095.653.498.558.902-.095.403-.498.653-.902.558-.904-.212-1.711-.525-2.312-.935-.583-.399-1.111-.992-1.111-1.78v-6.9c0-.59.302-1.077.687-1.44.382-.362.896-.654 1.469-.883 1.149-.46 2.685-.727 4.344-.727 1.659 0 3.195.268 4.344.727.573.23 1.087.52 1.47.883.384.363.686.85.686 1.44s-.302 1.077-.687 1.44c-.382.362-.896.654-1.469.883-1.149.46-2.685.727-4.344.727-1.659 0-3.195-.268-4.344-.727Zm-.656-2.323c0-.045.02-.164.217-.35.2-.189.528-.393.996-.58.931-.373 2.27-.62 3.787-.62s2.855.247 3.787.62c.468.187.797.391.996.58.197.186.217.305.217.35 0 .045-.02.164-.217.35-.2.189-.528.393-.996.58-.932.373-2.27.62-3.787.62s-2.856-.247-3.787-.62c-.468-.187-.797-.391-.996-.58-.197-.186-.217-.305-.217-.35Z" clip-rule="evenodd"/><path fill-rule="evenodd" d="M15.083 9.53c-.879.879-.879 2.303 0 3.182.266.266.581.451.917.556v.232c0 1.243-1.008 2.25-2.25 2.25h-.232c-.105-.335-.29-.651-.556-.917-.879-.879-2.303-.879-3.182 0-.879.878-.879 2.303 0 3.182.879.878 2.303.878 3.182 0 .225-.225.393-.486.502-.765h.286c2.07 0 3.75-1.679 3.75-3.75v-.285c.278-.11.54-.278.765-.503.878-.879.878-2.303 0-3.182-.879-.879-2.304-.879-3.182 0Zm1.06 2.121c-.292-.293-.292-.767 0-1.06.293-.293.768-.293 1.061 0 .293.293.293.768 0 1.06-.293.293-.768.293-1.06 0Zm-5.302 5.303c-.293-.293-.293-.768 0-1.06.293-.293.768-.293 1.06 0 .293.292.293.767 0 1.06-.293.293-.767.293-1.06 0Z" clip-rule="evenodd"/></svg>
